X:130
T: SCHLAFE KINDLEIN HOLD UND SUESS
N: B0621
O: Europa, Mitteleuropa, Deutschland
R: Kinder -, Wiegen - Lied
M: 3/4
L: 1/16
K: G
 | G6A2B2c2 | e2d2B8 |
d2c2A6A2 | c2B2G4z4 |
d2c2A6c2 | e2d2B4z4 |
d6B2c2A2 | dcBAA4G4

@@@ Tune index: 2348
